X: 1
T: Lady Gordon's
M: 4/4
L: 1/8
R: reel
K: Dmaj
FEDF A3B|defd efdB|BAFB ABdf|afge fddA:|
d2fd adfd|Adfd (3Bcd ef|d2fd adfd|ABde fddc|
defg ~a3b|afed (3Bcd eg|fedB BAFB|ABde faa2||
